X: 8721
T: Crucaharan Cross, The
R: polka
M: 2/4
K: Amajor
Ae ce|A>G Af|ec c/B/A/B/|cB Bc/B/|
Ae ce|A2 Af|ec Bc/B/|A2- A:|
f>^e fa|A2 Af|ec c/B/A/B/|cB Be|
f2 fa|A2- Af|ec Bc/B/|A2- A:|

